design/Devices/motor_outline.svg

<svg width="24" height="24" viewBox="0 0 24 24"  xmlns="http://www.w3.org/2000/svg">
<path fill-rule="evenodd" clip-rule="evenodd" d="M12 20C16.4183 20 20 16.4183 20 12C20 7.58172 16.4183 4 12 4C7.58172 4 4 7.58172 4 12C4 16.4183 7.58172 20 12 20ZM12 22C17.5228 22 22 17.5228 22 12C22 6.47715 17.5228 2 12 2C6.47715 2 2 6.47715 2 12C2 17.5228 6.47715 22 12 22Z" />
<path d="M10.8574 16.5L9.10547 10.3301H9.05273C9.13477 11.3809 9.17578 12.1973 9.17578 12.7793V16.5H7.125V7.93359H10.207L11.9941 14.0156H12.041L13.793 7.93359H16.8809V16.5H14.7539V12.7441C14.7539 12.5488 14.7559 12.332 14.7598 12.0938C14.7676 11.8555 14.7949 11.2715 14.8418 10.3418H14.7891L13.0605 16.5H10.8574Z" />
</svg>

<svg xmlns="http://www.w3.org/2000/svg" width="24" height="24" viewBox="0 0 24 24"><path d="M12,20a8,8,0,1,0-8-8A8,8,0,0,0,12,20Zm0,2A10,10,0,1,0,2,12,10,10,0,0,0,12,22Zm-1.14-5.5L9.11,10.33H9.05c.08,1.05.13,1.87.13,2.45V16.5H7.12V7.93h3.09L12,14h0l1.75-6.09h3.09V16.5H14.75V12.74c0-.19,0-.41,0-.65s0-.82.08-1.75h-.05L13.06,16.5Z" fill-rule="evenodd"/><rect width="24" height="24" fill="none"/></svg>
